X: 20931
M: 2/4
L: 1/16
K: Eb
E3DC2D2 | E3F AGFE | D3B,F2B,2 | G2B,2F2B,2 |\
E2D2C2D2 | E3F AGFE | D3AG3=B, | C4 C2 :| G2 |\
c3de2f2 | g3a (ag)fe | fgag fedc | =BcdB G4 |
c3de2f2 | g3ag2f2 | (g2(3edc) (f2(3dc=B) | c4 C2G2 |\
c3de2f2 | g3a agfe | fgag (fe)dc | =BcdB G4 |\
E3eg3e | c2G2 E4 | DA3G2=B,2 | C4 C2 |]


